img/svg/profile-referral.svg

<svg width="24" height="24" viewBox="0 0 24 24" fill="none" xmlns="http://www.w3.org/2000/svg">
<path d="M1 21.1999C0.999938 21.7522 1.4476 22.1999 1.99989 22.2C2.55217 22.2001 2.99994 21.7524 3 21.2001L1 21.1999ZM2.0004 17.5996L3.0004 17.5997L2.0004 17.5996ZM12.2 15C12.7523 15 13.2 14.5523 13.2 14C13.2 13.4477 12.7523 13 12.2 13V15ZM21.2 16.2C21.7523 16.2 22.2 15.7523 22.2 15.2C22.2 14.6477 21.7523 14.2 21.2 14.2V16.2ZM15.8 14.2C15.2477 14.2 14.8 14.6477 14.8 15.2C14.8 15.7523 15.2477 16.2 15.8 16.2V14.2ZM17.5 17.8999C17.5 18.4521 17.9477 18.8999 18.5 18.8999C19.0523 18.8999 19.5 18.4521 19.5 17.8999H17.5ZM19.5 12.4999C19.5 11.9476 19.0523 11.4999 18.5 11.4999C17.9477 11.4999 17.5 11.9476 17.5 12.4999H19.5ZM13 5.6C13 7.03594 11.8359 8.2 10.4 8.2V10.2C12.9405 10.2 15 8.14051 15 5.6H13ZM10.4 8.2C8.96406 8.2 7.8 7.03594 7.8 5.6H5.8C5.8 8.14051 7.85949 10.2 10.4 10.2V8.2ZM7.8 5.6C7.8 4.16406 8.96406 3 10.4 3V1C7.85949 1 5.8 3.05949 5.8 5.6H7.8ZM10.4 3C11.8359 3 13 4.16406 13 5.6H15C15 3.05949 12.9405 1 10.4 1V3ZM3 21.2001L3.0004 17.5997L1.0004 17.5995L1 21.1999L3 21.2001ZM5.6004 13C3.0601 13 1.00069 15.0592 1.0004 17.5995L3.0004 17.5997C3.00057 16.1639 4.16458 15 5.6004 15V13ZM5.6004 15H12.2V13H5.6004V15ZM21.2 14.2H18.5V16.2H21.2V14.2ZM18.5 14.2H15.8V16.2H18.5V14.2ZM19.5 17.8999V15.2H17.5V17.8999H19.5ZM19.5 15.2V12.4999H17.5V15.2H19.5Z" fill="#F2F4F6"/>
</svg>

<svg width="24" height="24" viewBox="0 0 24 24" fill="none" xmlns="http://www.w3.org/2000/svg"><path d="M1 21.2a1 1 0 002 0H1zm1-3.6h1-1zM12.2 15a1 1 0 100-2v2zm9 1.2a1 1 0 100-2v2zm-5.4-2a1 1 0 100 2v-2zm1.7 3.7a1 1 0 002 0h-2zm2-5.4a1 1 0 10-2 0h2zM13 5.6a2.6 2.6 0 01-2.6 2.6v2A4.6 4.6 0 0015 5.6h-2zm-2.6 2.6a2.6 2.6 0 01-2.6-2.6h-2a4.6 4.6 0 004.6 4.6v-2zM7.8 5.6A2.6 2.6 0 0110.4 3V1a4.6 4.6 0 00-4.6 4.6h2zM10.4 3A2.6 2.6 0 0113 5.6h2A4.6 4.6 0 0010.4 1v2zM3 21.2v-3.6H1v3.6h2zM5.6 13A4.6 4.6 0 001 17.6h2A2.6 2.6 0 015.6 15v-2zm0 2h6.6v-2H5.6v2zm15.6-.8h-2.7v2h2.7v-2zm-2.7 0h-2.7v2h2.7v-2zm1 3.7v-2.7h-2v2.7h2zm0-2.7v-2.7h-2v2.7h2z" fill="#F2F4F6"/></svg>
